X:16
T:The Happy Man
T:A Morris Dancers Clap-song
T:used (& composed?) at Adderbury - Oxon
S: Noted by J.H.B. [Janet Blunt] from William Walton  February 5th 1917
Z: Taz Tarry, 21/8/2014
M:3/4
L:1/4
K:Eb
V:T1 clef=treble
V:B1 middle=d clef=bass
"^Once to yourself (then sing)"
[V:T1]B,  |E E/2E/2 F &xE | G2    F    |G     G    =A    |B2     B   | G      G   G    |
w:    How hap-py is that  man, that's free from   all   care- That   loves to make
[V:B1][Bg]|[ge] [ge] [bB]| [b2e2] [bd]| [be] [be] [c'c] |[B2f2]  [be]| [be] [be] [be] |
[V:T1]F    F    B   |  G     G    G  |  F  F   B/>B/            | B     c   =A  | B2    :|
w:   mer-ry, That loves     to make   mer-ry O'er a              drop of good beer.
[V:B1][bB] [bB] [be]| [be] [be] [be] |  [bB] [bB] [b/2e/2]>[b/e/]|[fb] [fc'] [Ff]| [B2f2]:|
[V:T1]B/2>_A/|G3/2 F/2 E|B2 (E/D/) | | (C (A/2G/2)) (F/E/) | (ED) B,/2B,/2|
w: With his pipe and his friends puf-fing hours- --a- -way - sing-ing
[V:B1][e/2b/2]>[e/b/]|[e3/2b3/2] [d/a/] [cg]| [b2B2] [e/g/] [e/g]|[aA] [aA] [aA] | (gf) [g/B/] [g/B/]& B2|
[V:T1]E   (E/F/) G   |   F2     (A/G/)      |      F3/2           E/     D|    "_X"E2  ||
w:   Song af--  ter    song(s) till he           hails           the    new    day.
[V:B1][eg] [eg] [cb] | [B2b2] [e/b/] [e/b/] | "_*"[b3/2f3/2c3/2] [g/B/] [aB]| [g2E2]||
[V:T1]"_/" B/2>A/       | "_\\"G "_/"F "_\\"E    | "_/        \\"B2 "_/"E  |"_\\"C "_/"A "_\\"F|("_/"E "_\\"D) "_\\"B,/2 B,/2      | ("_\\"E>"_/"F) "_\\"G/2     A/2   |
[V:B1][e/2a/2]>[e/2a/2] |    [eb] [da]    [cg]   |       [B2b2]   [eg] | [Aa]   [Aa]   [Aa]|   (gf)          [g/B/] [g/B/]& B2 |    [eg]>[eg]    [e/2b/2] [e/2b/2] |
w:      He       can        laugh, dance  and            sing,    And   smoke   with    out    fear. -          Be     as            hap-py        as        a
[V:T1]"_/           \\"F2 "_/"A/2 G/2   | "_\\           /"F3/2 E/2       "_\\"D           | !fermata!"_X"D2 :|
[V:B1][B2b2] [e/2b/2] [e/2b/2]          |         "_*"[b3/2f3/2c3/2] "_**"[g/2B/2A/2] [aB] | [g2E2]||
w:     King,    Till     he                                   hails           the      New    Year
W:Repeat chorus last & last verse three times. The last time as fast as possible while keeping strict time.
W:The stick clap is only in the Chorus. The singers stand as for dancing a Morris Sett, opposite each other. They used these Clap Stick songs as a [test?] between the dancers.
W:Some of these harmonies are obviously wrong and Mr. W could not recall the (or any) alto part - much needed. * - in the manuscript is noted either f or b with a question mark; ** similarly is noted either B or A with a question mark.

